packages/base/core/src/svg/system/gear.svg

<?xml version="1.0" encoding="UTF-8"?>
<svg width="24px" height="24px" viewBox="0 0 24 24" version="1.1" xmlns="http://www.w3.org/2000/svg" xmlns:xlink="http://www.w3.org/1999/xlink">
    <!-- Generator: Sketch 54.1 (76490) - https://sketchapp.com -->
    <title>Icons/System/settings</title>
    <desc>Created with Sketch.</desc>
    <g id="Icons/System/settings" stroke="none" stroke-width="1" fill="none" fill-rule="evenodd">
        <path d="M6.0301002,12.6055173 L6.07365694,13.0410279 L4.91037847,14.3528708 C4.62480082,14.6749201 4.57734079,15.1435771 4.79255599,15.5163408 L5.35103755,16.4836592 C5.56625275,16.8564229 5.99585163,17.0496498 6.41754332,16.9633569 L8.13647408,16.6116037 L8.4923208,16.8685099 C8.82005719,17.1051216 9.17076135,17.308125 9.53925051,17.4740717 L9.93875448,17.6539858 L10.4928351,19.3162278 C10.6289492,19.7245699 11.011088,20 11.4415184,20 L12.5584816,20 C12.988912,20 13.3710508,19.7245699 13.5071649,19.3162278 L14.0612455,17.6539858 L14.4607495,17.4740717 C14.8292386,17.308125 15.1799428,17.1051216 15.5076792,16.8685099 L15.8635259,16.6116037 L17.5824567,16.9633569 C18.0041484,17.0496498 18.4337472,16.8564229 18.6489625,16.4836592 L19.207444,15.5163408 C19.4226592,15.1435771 19.3751992,14.6749201 19.0896215,14.3528708 L17.9263431,13.0410279 L17.9698998,12.6055173 C17.9899161,12.4053803 18,12.2033912 18,12 C18,11.7966088 17.9899161,11.5946197 17.9698998,11.3944827 L17.9263431,10.9589721 L19.0896215,9.64712917 C19.3751992,9.32507988 19.4226592,8.85642289 19.207444,8.48365922 L18.6489625,7.51634078 C18.4337472,7.14357711 18.0041484,6.95035021 17.5824567,7.03664306 L15.8635259,7.38839633 L15.5076792,7.13149012 C15.1799428,6.89487837 14.8292386,6.69187498 14.4607495,6.52592826 L14.0612455,6.34601421 L13.5071649,4.68377223 C13.3710508,4.27543009 12.988912,4 12.5584816,4 L11.4415184,4 C11.011088,4 10.6289492,4.27543009 10.4928351,4.68377223 L9.93875448,6.34601421 L9.53925051,6.52592826 C9.17076135,6.69187498 8.82005719,6.89487837 8.4923208,7.13149012 L8.13647408,7.38839633 L6.41754332,7.03664306 C5.99585163,6.95035021 5.56625275,7.14357711 5.35103755,7.51634078 L4.79255599,8.48365922 C4.57734079,8.85642289 4.62480082,9.32507988 4.91037847,9.64712917 L6.07365694,10.9589721 L6.0301002,11.3944827 C6.01008389,11.5946197 6,11.7966088 6,12 C6,12.2033912 6.01008389,12.4053803 6.0301002,12.6055173 Z M4,12 C4,11.8809421 4.00260773,11.7621704 4.00780842,11.6437448 L3.41397261,10.9740691 C2.55723968,10.0079212 2.41485957,8.60195022 3.06050518,7.48365922 L3.61898674,6.51634078 C4.26463235,5.39804978 5.553429,4.81836908 6.81850406,5.07724762 L7.69433256,5.25647272 C7.89508318,5.12806216 8.10151363,5.00864878 8.31302882,4.89863588 L8.59546855,4.0513167 C9.00381069,2.82629028 10.1502272,2 11.4415184,2 L12.5584816,2 C13.8497728,2 14.9961893,2.82629028 15.4045315,4.0513167 L15.6869712,4.89863588 C15.8984864,5.00864878 16.1049168,5.12806216 16.3056674,5.25647272 L17.1814959,5.07724762 C18.446571,4.81836908 19.7353676,5.39804978 20.3810133,6.51634078 L20.9394948,7.48365922 C21.5851404,8.60195022 21.4427603,10.0079212 20.5860274,10.9740691 L19.9921916,11.6437448 C19.9973923,11.7621704 20,11.8809421 20,12 C20,12.1190579 19.9973923,12.2378296 19.9921916,12.3562552 L20.5860274,13.0259309 C21.4427603,13.9920788 21.5851404,15.3980498 20.9394948,16.5163408 L20.3810133,17.4836592 C19.7353676,18.6019502 18.446571,19.1816309 17.1814959,18.9227524 L16.3056674,18.7435273 C16.1049168,18.8719378 15.8984864,18.9913512 15.6869712,19.1013641 L15.4045315,19.9486833 C14.9961893,21.1737097 13.8497728,22 12.5584816,22 L11.4415184,22 C10.1502272,22 9.00381069,21.1737097 8.59546855,19.9486833 L8.31302882,19.1013641 C8.10151363,18.9913512 7.89508318,18.8719378 7.69433256,18.7435273 L6.81850406,18.9227524 C5.553429,19.1816309 4.26463235,18.6019502 3.61898674,17.4836592 L3.06050518,16.5163408 C2.41485957,15.3980498 2.55723968,13.9920788 3.41397261,13.0259309 L4.00780842,12.3562552 C4.00260773,12.2378296 4,12.1190579 4,12 Z M12,14 C10.8954305,14 10,13.1045695 10,12 C10,10.8954305 10.8954305,10 12,10 C13.1045695,10 14,10.8954305 14,12 C14,13.1045695 13.1045695,14 12,14 Z" id="Color" fill="#2859C0"></path>
    </g>
</svg>

<svg xmlns="http://www.w3.org/2000/svg" width="24" height="24" viewBox="0 0 24 24">
    <path fill="#0050D7" fill-rule="evenodd" d="M12.558 2a3 3 0 0 1 2.847 2.051l.282.848c.211.11.418.23.619.357l.875-.179a3 3 0 0 1 3.2 1.44l.558.967a3 3 0 0 1-.353 3.49l-.594.67a8.12 8.12 0 0 1 0 .712l.594.67a3 3 0 0 1 .353 3.49l-.558.968a3 3 0 0 1-3.2 1.439l-.875-.18c-.201.129-.408.248-.619.358l-.282.848A3 3 0 0 1 12.558 22h-1.116a3 3 0 0 1-2.847-2.051l-.282-.848a7.993 7.993 0 0 1-.619-.357l-.875.179a3 3 0 0 1-3.2-1.44l-.558-.967a3 3 0 0 1 .353-3.49l.594-.67a8.12 8.12 0 0 1 0-.712l-.594-.67a3 3 0 0 1-.353-3.49l.558-.968a3 3 0 0 1 3.2-1.439l.875.18c.201-.129.408-.248.619-.358l.282-.848A3 3 0 0 1 11.442 2h1.116zm0 2h-1.116a1 1 0 0 0-.95.684L9.94 6.346l-.4.18c-.368.166-.719.369-1.047.605l-.356.257-1.718-.351a1 1 0 0 0-1.067.48l-.558.967a1 1 0 0 0 .117 1.163l1.164 1.312-.044.435a6.083 6.083 0 0 0 0 1.212l.044.435-1.164 1.312a1 1 0 0 0-.117 1.163l.558.968a1 1 0 0 0 1.067.48l1.718-.352.356.257c.328.236.679.44 1.047.605l.4.18.554 1.662a1 1 0 0 0 .949.684h1.116a1 1 0 0 0 .95-.684l.553-1.662.4-.18c.368-.166.719-.369 1.047-.605l.356-.257 1.718.351a1 1 0 0 0 1.067-.48l.558-.967a1 1 0 0 0-.117-1.163l-1.164-1.312.044-.435a6.083 6.083 0 0 0 0-1.212l-.044-.435 1.164-1.312a1 1 0 0 0 .117-1.163l-.558-.968a1 1 0 0 0-1.067-.48l-1.718.352-.356-.257a5.993 5.993 0 0 0-1.047-.605l-.4-.18-.554-1.662A1 1 0 0 0 12.558 4zM12 10a2 2 0 1 1 0 4 2 2 0 0 1 0-4z"/>
</svg>
